X:1
T:Green Like Me
M:4/4
K:G
L:1/8
C:Paul Spencer
DD |GGAB GDDD |EEFF G2GG |BGGG AFFF |EEFG A3A |
DDCB, EEDC |DCB,C A,2G,G, |GGAB GDDD EEFF G3G |
FAGE F3D |GGAB GDDD |EF G2 |
